svg/graphene.svg

<svg viewBox="0 0 20 20" xmlns="http://www.w3.org/2000/svg">
<rect width="100%" height="100%" fill="#EB1919"/>
<path fill-rule="evenodd" clip-rule="evenodd" d="M10 1.69995L11.2 2.39995V3.79995L5.4 7.29995V12.8L9.9 15.5L14.5 12.8V8.79995L10 11.4L8.8 10.7V9.29995L15.8 5.19995L17 5.79995V14.1L10 18.2L3 14V5.79995" fill="white"/>
</svg>

<svg xmlns="http://www.w3.org/2000/svg" viewBox="0 0 20 20">
  <rect width="100%" height="100%" fill="#EB1919"/>
  <path fill="#fff" fill-rule="evenodd" d="m10 1.7 1.2.7v1.4L5.4 7.3v5.5l4.5 2.7 4.6-2.7v-4L10 11.4l-1.2-.7V9.3l7-4.1 1.2.6v8.3l-7 4.1L3 14V5.8" clip-rule="evenodd"/>
</svg>
